src/images/icons/odnoklassniki.svg

<?xml version="1.0" encoding="UTF-8"?>
<svg width="12px" height="18px" viewBox="0 0 12 18" version="1.1" xmlns="http://www.w3.org/2000/svg" xmlns:xlink="http://www.w3.org/1999/xlink">
    <!-- Generator: Sketch 49.3 (51167) - http://www.bohemiancoding.com/sketch -->
    <title>odnoklassniki</title>
    <desc>Created with Sketch.</desc>
    <g id="Marvel" stroke="none" stroke-width="1" fill="none" fill-rule="evenodd">
        <g id="Marvel_Modal_Share" transform="translate(-886.000000, -702.000000)">
            <g id="Chat" transform="translate(529.000000, 390.000000)">
                <g id="Чат" transform="translate(0.000000, 16.000000)">
                    <g id="Group-14-Copy-3" transform="translate(335.000000, 277.000000)">
                        <g id="Component-/-Icons-/-S-/-Social-/-Facebook" transform="translate(22.000000, 19.000000)">
                            <mask id="mask-2" fill="white">
                                <path d="M11.0962311,11.6352936 C11.6569336,11.2671264 11.9949815,10.6417378 11.9958672,9.97096682 C12.008486,9.56956738 11.8545705,9.18081496 11.570598,8.89684248 C11.2866255,8.61286999 10.8978731,8.45895446 10.4964737,8.47157331 C10.1686232,8.47210152 9.84998164,8.58007098 9.5893406,8.77894898 C7.4442431,10.3820652 4.49986443,10.3820652 2.35476693,8.77894898 C2.10406159,8.60395375 1.80585104,8.509782 1.50011263,8.50905815 C1.0987132,8.4964393 0.709960772,8.65035483 0.425988289,8.93432731 C0.142015805,9.2182998 -0.0118997253,9.60705222 0.000719124546,10.0084517 C0.00160481031,10.6792226 0.339652695,11.3046112 0.900355228,11.6727784 C1.6284861,12.1382381 2.41838575,12.4991187 3.24690607,12.7448448 L3.72671199,12.8797902 L1.26770664,15.2938138 C0.967361847,15.5909444 0.798357065,15.9958739 0.798357065,16.4183589 C0.798357065,16.8408439 0.967361847,17.2457734 1.26770664,17.542904 C1.89353895,18.1523653 2.89096458,18.1523653 3.5167969,17.542904 L5.99829315,14.9414563 L8.49478334,17.5279101 C9.11585247,18.1489792 10.1228045,18.1489792 10.7438736,17.5279101 C11.3649427,16.906841 11.3649427,15.899889 10.7438736,15.2788198 L8.24738341,12.8872872 L8.7346863,12.7523418 C9.57092713,12.4940448 10.3660995,12.1179156 11.0962311,11.6352936 Z M5.99829315,8.99636104 C8.48256965,8.99636104 10.4964737,6.98245702 10.4964737,4.49818052 C10.4964737,2.01390402 8.48256965,1.52118063e-16 5.99829315,0 C3.51401665,-1.52118063e-16 1.50011263,2.01390402 1.50011263,4.49818052 C1.50011263,6.98245702 3.51401665,8.99636104 5.99829315,8.99636104 Z M5.99829315,2.24909026 C7.2404314,2.24909026 8.24738341,3.25604227 8.24738341,4.49818052 C8.24738341,5.74031877 7.2404314,6.74727078 5.99829315,6.74727078 C4.7561549,6.74727078 3.74920289,5.74031877 3.74920289,4.49818052 C3.74920289,3.25604227 4.7561549,2.24909026 5.99829315,2.24909026 Z"></path>
                            </mask>
                            <path d="M11.0962311,11.6352936 C11.6569336,11.2671264 11.9949815,10.6417378 11.9958672,9.97096682 C12.008486,9.56956738 11.8545705,9.18081496 11.570598,8.89684248 C11.2866255,8.61286999 10.8978731,8.45895446 10.4964737,8.47157331 C10.1686232,8.47210152 9.84998164,8.58007098 9.5893406,8.77894898 C7.4442431,10.3820652 4.49986443,10.3820652 2.35476693,8.77894898 C2.10406159,8.60395375 1.80585104,8.509782 1.50011263,8.50905815 C1.0987132,8.4964393 0.709960772,8.65035483 0.425988289,8.93432731 C0.142015805,9.2182998 -0.0118997253,9.60705222 0.000719124546,10.0084517 C0.00160481031,10.6792226 0.339652695,11.3046112 0.900355228,11.6727784 C1.6284861,12.1382381 2.41838575,12.4991187 3.24690607,12.7448448 L3.72671199,12.8797902 L1.26770664,15.2938138 C0.967361847,15.5909444 0.798357065,15.9958739 0.798357065,16.4183589 C0.798357065,16.8408439 0.967361847,17.2457734 1.26770664,17.542904 C1.89353895,18.1523653 2.89096458,18.1523653 3.5167969,17.542904 L5.99829315,14.9414563 L8.49478334,17.5279101 C9.11585247,18.1489792 10.1228045,18.1489792 10.7438736,17.5279101 C11.3649427,16.906841 11.3649427,15.899889 10.7438736,15.2788198 L8.24738341,12.8872872 L8.7346863,12.7523418 C9.57092713,12.4940448 10.3660995,12.1179156 11.0962311,11.6352936 Z M5.99829315,8.99636104 C8.48256965,8.99636104 10.4964737,6.98245702 10.4964737,4.49818052 C10.4964737,2.01390402 8.48256965,1.52118063e-16 5.99829315,0 C3.51401665,-1.52118063e-16 1.50011263,2.01390402 1.50011263,4.49818052 C1.50011263,6.98245702 3.51401665,8.99636104 5.99829315,8.99636104 Z M5.99829315,2.24909026 C7.2404314,2.24909026 8.24738341,3.25604227 8.24738341,4.49818052 C8.24738341,5.74031877 7.2404314,6.74727078 5.99829315,6.74727078 C4.7561549,6.74727078 3.74920289,5.74031877 3.74920289,4.49818052 C3.74920289,3.25604227 4.7561549,2.24909026 5.99829315,2.24909026 Z" fill="#000000" fill-rule="nonzero"></path>
                        </g>
                    </g>
                </g>
            </g>
        </g>
    </g>
</svg>

<svg width="12" height="18" viewBox="0 0 12 18" xmlns="http://www.w3.org/2000/svg">
    <title>
        odnoklassniki
    </title>
    <path d="M11.096 11.635c.56-.368.899-.993.9-1.664a1.454 1.454 0 0 0-1.5-1.5 1.5 1.5 0 0 0-.907.308 6.043 6.043 0 0 1-7.234 0 1.5 1.5 0 0 0-.855-.27 1.454 1.454 0 0 0-1.5 1.5c.002.67.34 1.296.9 1.664a9.229 9.229 0 0 0 2.347 1.072l.48.135-2.46 2.414a1.582 1.582 0 0 0 0 2.249c.627.61 1.624.61 2.25 0l2.481-2.602 2.497 2.587a1.59 1.59 0 0 0 2.249-2.25l-2.497-2.39.488-.136a9.214 9.214 0 0 0 2.361-1.117zM5.998 8.996a4.498 4.498 0 1 0 0-8.996 4.498 4.498 0 0 0 0 8.996zm0-6.747a2.25 2.25 0 1 1 0 4.498 2.25 2.25 0 0 1 0-4.498z" fill="#000" fill-rule="nonzero"/>
</svg>
